icons/linear-ele-drink-goblet-square-full.svg

<svg xmlns="http://www.w3.org/2000/svg" width="32px" height="32px" viewBox="0 0 32 32" version="1.1">
    <title>linear-ele-drink-goblet-square-full</title>
    <g id="linear-ele-drink-goblet-square-full" stroke-width="1" fill-rule="evenodd">
        <path d="M25,2 C25.5522847,2 26,2.44771525 26,3 L26,10 C26,15.1849719 22.0538953,19.4482817 17.0010997,19.9505155 L17,28 L20,28 C20.5522847,28 21,28.4477153 21,29 C21,29.5522847 20.5522847,30 20,30 L12,30 C11.4477153,30 11,29.5522847 11,29 C11,28.4477153 11.4477153,28 12,28 L15,28 L14.9998991,19.9506147 C9.94662476,19.4488436 6,15.1853136 6,10 L6,3 C6,2.44771525 6.44771525,2 7,2 L25,2 Z M16.8053354,10.6700161 L16.5547002,10.8320503 C13.8018247,12.6673006 10.9796901,12.9880521 8.20260536,11.7943049 C8.9982736,15.2703864 12.0599732,17.8832712 15.7508207,17.9961932 L16,18 C20.2365791,18 23.7039931,14.7068127 23.9820185,10.5406614 C21.5663654,9.11126946 19.2253569,9.15445652 16.8053354,10.6700161 L16.8053354,10.6700161 Z M24,4 L8,4 L8,9.44890229 C10.4218234,10.8888246 12.7682518,10.8493105 15.1940642,9.33035994 L15.4452998,9.16794971 C18.26526,7.28797623 21.1578961,6.99721446 24.0003368,8.2956644 L24,4 Z" id="&#24418;&#29366;" fill-rule="nonzero" />
    </g>
</svg>

<svg xmlns="http://www.w3.org/2000/svg" viewBox="0 0 32 32"><path fill="currentColor" d="M25 2a1 1 0 0 1 1 1v7c0 5.185-3.946 9.448-8.999 9.95L17 28h3a1 1 0 0 1 0 2h-8a1 1 0 0 1 0-2h3v-8.05C9.947 19.45 6 15.186 6 10V3a1 1 0 0 1 1-1zm-8.195 8.67-.25.162c-2.753 1.835-5.575 2.156-8.352.962a8.002 8.002 0 0 0 7.548 6.202L16 18a8 8 0 0 0 7.982-7.46c-2.416-1.429-4.757-1.386-7.177.13M24 4H8v5.449c2.422 1.44 4.768 1.4 7.194-.119l.251-.162c2.82-1.88 5.713-2.17 8.555-.872z"/></svg>
